X:18238
T:Vaqueirada (CT 259)
R:Vaqueirada
C:Tradicional
S:Música Tradicional Asturiana, (C) Tello & Tito. Asturies, 2001.
S:http://pagina.de/MusTradAst <telloytito@asturies.org>
N:Canción de baile de pandero, transcrita en Perlunes, ayuntamiento de Somiedu.
N:Es propia de los vaqueiros.
O:Perlunes (Somiedu)
A:Asturies
Z:Cancioneru de Torner 259
M:6/8
L:1/8
Q:3/8=88
W:Les mocines de la braña, (bis)
W:dan la l.leite a los chavales, (bis)
W:y van diciendo pa casa:
W:mamá nun los tenrales.
K:Gm
|:^FAA GBB|A2G- G3|^FAA GBB|A2G- GBc|
d3 dcB|[1 A2G- G2z:|[2 A2G- G3-|G2 z4||



Xuan Barreiru,
W:del meo metá la braña ¡Ay! vida mía.
K:Bbm
|BBB eee|B3/2c/4B/4 A-A3|ddd fff|e3/2 (3c/4d/4d/4 B-B2 z|
BBB eee|B3/2c/4B/4 A-A3|ddd fff|e2c Bee|(d>c)B-B3-|B2 z4|



